icons/lines/lovely.svg

<svg xmlns="http://www.w3.org/2000/svg" width="24" height="24" viewBox="0 0 24 24" fill="none" stroke="currentColor" stroke-width="2" stroke-linecap="round" stroke-linejoin="round" >
  <path d="M19.86 8.08997C19.86 8.50997 19.83 8.91997 19.78 9.30997C19.32 9.10997 18.82 8.99997 18.29 8.99997C17.07 8.99997 15.99 9.58996 15.32 10.49C14.64 9.58996 13.56 8.99997 12.34 8.99997C10.29 8.99997 8.63 10.67 8.63 12.74C8.63 15.42 10.05 17.47 11.63 18.86C11.58 18.89 11.53 18.9 11.48 18.92C11.18 19.03 10.68 19.03 10.38 18.92C7.79 18.03 2 14.35 2 8.08997C2 5.32997 4.21999 3.09998 6.95999 3.09998C8.58999 3.09998 10.03 3.87997 10.93 5.08997C11.84 3.87997 13.28 3.09998 14.9 3.09998C17.64 3.09998 19.86 5.32997 19.86 8.08997Z"/>
  <path d="M21.9999 12.74C21.9999 17.42 17.6699 20.18 15.7299 20.84C15.4999 20.92 15.1299 20.92 14.8999 20.84C14.0699 20.56 12.7999 19.89 11.6299 18.86C10.0499 17.47 8.62988 15.42 8.62988 12.74C8.62988 10.67 10.2899 9 12.3399 9C13.5599 9 14.6399 9.58999 15.3199 10.49C15.9899 9.58999 17.0699 9 18.2899 9C18.8199 9 19.3199 9.11 19.7799 9.31C21.0899 9.89 21.9999 11.2 21.9999 12.74Z"/>
  </svg>

<svg xmlns="http://www.w3.org/2000/svg" width="24" height="24" viewBox="0 0 24 24" fill="none" stroke="currentColor" stroke-width="2" stroke-linecap="round" stroke-linejoin="round">
  <path d="M19.86 8.09a10 10 0 0 1-.08 1.22 3.7 3.7 0 0 0-4.46 1.18 3.73 3.73 0 0 0-6.69 2.25c0 2.68 1.42 4.73 3 6.12a1 1 0 0 1-.15.06c-.3.11-.8.11-1.1 0C7.79 18.03 2 14.35 2 8.09a5 5 0 0 1 8.93-3 5 5 0 0 1 8.93 3" />
  <path d="M22 12.74c0 4.68-4.33 7.44-6.27 8.1a1.47 1.47 0 0 1-.83 0c-.83-.28-2.1-.95-3.27-1.98-1.58-1.39-3-3.44-3-6.12a3.72 3.72 0 0 1 6.69-2.25A3.7 3.7 0 0 1 22 12.74" />
</svg>
